X:0738
M:C|
L:1/8
Q:1/4=120
K:G
d   |B>dg>b g>bg>d|e>gd>B c>AA>c   |B>dg>b   g>bgd |e>gdc  Bggd|
     B>dg>b B>dg>b|dgab   aA  AB/c/|de de/f/ gaba  |g>ed>c BGG|]

